X:31
T: My Ain Kind Deary 
N: HA031
O: Europa, Mitteleuropa, Deutschland
N: Vorschläge
M: 2/2
L: 1/32
K: F
A3G | A4C4C4D4F6G2F4
A4 | G6A2B2A2G2F2A4D4D4
A3G | A4C4C4D4F6G2F4
f2e2 | d6c2d2e2f2c2A4F4F4
c4 | d2c2d2e2f6A2B2A2B2c2d6
F2 | G2F2G2A2B2A2G2F2A4D4D4
A3G | A4C4C4D4F6G2F4
f2e2 | d6c2d2e2f2c2A4F4F4

